X:51
T:The Antrim Lass
R:reel
C:Paul S. Cranford
O:Cape Breton Island
S:http://www.cranfordpub.com
D:currently unrecorded
B:currently unpublished in book form
Z:psc
H:                                                        copyrights Cranford Publications, SOCAN
L:1/8
Q:333
M:C|
K:Eb
F|GE E/E/E G,B,EG|eBce BGEB|AF F/F/F cFAc|fgfe dBAF|
GE E/E/E G,B,EG|eBce BGEB|cAec BGEC|[1B,EDF E/E/E E:|[2B,EDF E/E/E||
|:(3(Bcd)|eB B/B/B eBgB|fc c/c/c fcaf|gfed eBGB|[1ABGB FBcd|
eB B/B/B eBgB|fc c/c/c fcaf|gfed eBGB|cedf e/e/e:|
[2ABGB FGAF|EB, B,/B,/B, EB,GE|FC C/C/C FGAF|Gec=A BGEC|B,EDF E2|]
